assets/images/ico_v_white.svg

<svg width="9" height="7" viewBox="0 0 9 7" fill="none" xmlns="http://www.w3.org/2000/svg">
<path d="M3.84425 7C3.60871 6.9982 3.38327 6.91296 3.216 6.76248L0.271074 4.09032C0.0975089 3.93283 -7.75897e-09 3.71923 0 3.49651C7.75897e-09 3.27379 0.0975089 3.06019 0.271074 2.9027C0.444639 2.74521 0.680044 2.65673 0.925502 2.65673C1.17096 2.65673 1.40637 2.74521 1.57993 2.9027L3.77881 4.89791L7.37817 0.337433C7.44692 0.250874 7.53379 0.17745 7.63381 0.121354C7.73384 0.065258 7.84506 0.0275881 7.96113 0.0104945C8.0772 -0.00659905 8.19584 -0.00278124 8.31028 0.02173C8.42473 0.0462412 8.53273 0.0909657 8.62812 0.15335C8.72352 0.215735 8.80444 0.294557 8.86626 0.385317C8.92808 0.476077 8.9696 0.576997 8.98843 0.682316C9.00727 0.787634 9.00307 0.895288 8.97605 0.999131C8.94904 1.10297 8.89975 1.20097 8.831 1.28753L4.61648 6.61996C4.54064 6.71527 4.44279 6.7944 4.32975 6.85184C4.21672 6.90927 4.09123 6.94363 3.96205 6.9525L3.84425 7Z" fill="white"/>
</svg>

<svg width="9" height="7" fill="none" xmlns="http://www.w3.org/2000/svg"><path d="M3.844 7a.952.952 0 0 1-.628-.238L.271 4.09A.802.802 0 0 1 0 3.497c0-.223.098-.437.271-.594a.976.976 0 0 1 .655-.246c.245 0 .48.088.654.246l2.199 1.995 3.6-4.56A.868.868 0 0 1 7.633.12a.985.985 0 0 1 .994.032.85.85 0 0 1 .238.232.739.739 0 0 1 .11.614.78.78 0 0 1-.145.289L4.616 6.62a.868.868 0 0 1-.286.232.958.958 0 0 1-.368.1L3.844 7z" fill="#fff"/></svg>
